X:1
T:In Salutari Tuo
T:Heinrich Isaac edit BMarble
T:In Salutari Tuo
T:Copyright © 2015 by CPDL.  This edition can be fully distributed, duplicated, performed, and recorded. 
T:Copyright © 2015 by CPDL.  This edition can be fully distributed, duplicated, performed, and recorded. 
T:Copyright © 2015 by CPDL.  This edition can be fully distributed, duplicated, performed, and recorded. 
T:Copyright © 2015 by CPDL.  This edition can be fully distributed, duplicated, performed, and recorded. 
T:Copyright © 2015 by CPDL.  This edition can be fully distributed, duplicated, performed, and recorded. 
C:Heinrich Isaac
C:edit BMarble
Z:Copyright © 2015 by CPDL.  This edition can be fully distributed, duplicated, performed, and recorded.
Z:
%%score [ 1 2 3 4 ]
L:1/8
Q:1/2=80
M:4/4
K:D
V:1 treble nm="Soprano" snm="S."
V:2 treble nm="Alto" snm="A."
V:3 treble-8 transpose=-12 nm="Tenor" snm="T."
V:4 bass nm="Baritone" snm="Bar."
V:1
"^Communion, 21st S. after Pentecost: Psalm 119: My soul longs for your salvation;I put my hope in your word:When will your judgment doom my foes?The wicked have persecuted me: help me, O Lord my God." z24 || %1
w: |
[M:4/2] A12 A4 | A8 E4 G4- | G2 F2 E8 ^D4 | E8 z8 | D8 E8 | G8 G8 | A4 B8 ^A4 | B8 z8 | (G8 B8 | %10
w: a- ni-|ma me- *||a,|et in|ver- bum|tu- * *|um|spe- *|
 A8) (G8 | A8 B8 | A8) G4 A4- | A4 (G8 F4) | G8 z8 | B8 B8 | B8 (A8 | B8) B8 | z8 B8 | B8 A8 | %20
w: * ra-||* vi, spe-|* ra- *|vi:|quan- do|fa- ci-|* es|de|per- se-|
 B8 A8 | (G8 F8) | z8 (A8 | B8) (G8 | F8) E8 | E8 F4 G4- | G2 F2 E8 ^D4 | E16 | z8 G8 | (A8 B8) | %30
w: quen- ti-|bus _|me|_ ju-|* di-|ci- * *||um?|I-|ni- *|
 B8 z4 B4- | B4 B4 B6 A2 | B2 c2 d8 c4 | B4 G4 A8 | G8 z8 | B8 A8 | A8 A8 | z4 B6 A2 G4 | %38
w: qui per-|* se- cu- *||* ti sunt|me,|ad- ju-|va me,|Do- * *|
 F4 G4 A8 | F4 G6 F2 E4- | E4 ^D4 E8 | z4 E4 F4 G4 | A4 B8 ^A4 | B8 (G8 | F8) E8 | F4 G6 F2 E4- | %46
w: * * mi-|ne, Do- * *|* mi- ne|De- * *||* us|_ me-||
 E4 ^D4 E8 |] %47
w: * * us.|
V:2
 z24 ||[M:4/2] A,12 A,4 | E8 z4 E4- | (E2 D2 C4) B,8- | B,8 z4 E,4 | (F,6 G,2) A,4 E,4 | z4 (E12 | %7
w: |a- ni-|ma me-|* * * a,|_ et|in _ ver- bum|tu-|
 F8) F8- | F8 z4 F4 | E4 (G12 | E4 F4 G8) | F8 z4 F4- | F8 D2 E2 F4- | F2 E2 D2 C2 D8 | %14
w: * um,|_ ver-|bum tu-||um spe-|* ra- * *||
 B,4 E8 ^D4 | E8 z4 E4 | E4 G8 F4 | G8 z4 D4- | D4 D8 D4 | E4 D2 E2 F8 | z4 F6 E2 D4- | %21
w: |vi: quan-|do fa- ci-|es de|_ per- se-|quen- ti- * bus|me _ _|
 D4 C4 D4 F4 | F4 G4 E4 F4 | (D4 E4) (E,4 G,4 | A,8) z4 A,4- | A,8 F,4 (E,2 F,2 | G,2 A,2 B,12) | %27
w: _ _ _ de|per- se- quen- ti-|bus _ me _|_ ju-|* di- ci- *||
 B,8 z8 | z4 E12 | (E6 F2 G8) | G8 z4 G4- | G4 G4 G8 | G4 D6 B,2 C4 | D4 E8 ^D4 | E8 z8 | D8 F8 | %36
w: um?|I-|ni- * *|qui per-|* se- cu-|ti sunt _ _|_ _ _|me,|ad- ju-|
 F8 F8 | z4 (G8 G,4 | A,4) B,4 A,8- | A,4 (G,2 A,2 B,4) =C4 | B,16 | z8 z4 E4 | F16- | F8 G4 E4- | %44
w: va me,|Do- *|* mi- ne,|_ Do- * * mi-|ne|De-||* us, De-|
 E4 D4 E8 | z4 (E6 D2 =C4 | B,8) B,8 |] %47
w: * * us|me- * *|* us.|
V:3
 E2 (E2 G2) (G2 F2) G2 A2 A2 A8 ||[M:4/2] z8 A8- | A4 A4 A4 (E4 | G4 A4) F8 | (E6 F2 G4) A4 | %5
w: In sa- * lu- * ta- ri tu- o|a-|* ni- ma me-|* * a,|et _ _ in|
 (B8 =c8) | B8 z4 (B4 | ^c4 d4 c8) | B16 | z8 z4 (d4 | c4 d4) (e6 d2 | c2 B2 c4) B8 | z4 c4 B4 c4 | %13
w: ver- *|bum tu-||um|spe-|* * ra- *|* * * vi,|spe- ra- *|
 d4 B4 A8 | G4 B4 A8 | G8 z4 G4- | G4 G4 d4 d4 | G8 z4 F4 | F4 F4 B8- | B8 c8 | B8 z8 | z4 (G4 A8 | %22
w: ||vi: quan-|* do fa- ci-|es de|per- se- quen-|* ti-|bus|me _|
 B8 A8) | z4 G6 A2 B2 c2 | d4 A8 c4- | c4 e4 d4 B4- | B2 A2 G4 F8 | E16 | z4 B12 | (c8 d8) | %30
w: _ _|ju- * * *|* * di-|* ci- um, ju-|* * di- ci-|um?|I-|ni- *|
 d8 z4 e4- | e4 e4 e8 | e4 (f8 e4) | d4 (B8 A4) | B8 z8 | B8 d8 | d8 d8 | z4 (B8 c4 | %38
w: qui per-|* se- cu-|ti sunt _|me sunt _|me,|ad- ju-|va me,|Do- *|
 d4) e4 c4 d4- | (d2 c2 B2 A2 G4) A4 | F8 z4 E4- | E2 F2 G4 A4 B4 | ^c4 d4 c8 | B8 z4 E4 | B8 =c8 | %45
w: * mi- ne, Do-|* * * * * mi-|ne De-|||us, De-|us me-|
 A4 B4 G4 A4 | F8 E8 |] %47
w: |* us.|
V:4
 z24 ||[M:4/2] A,,12 A,,4 | (A,,6 B,,2 C,2 D,2 E,4-) | E,4 A,,4 B,,8 | z4 (E,6 D,2 C,4) | %5
w: |a- ni-|ma _ _ _ _|_ me- a,|et _ _|
 B,,8 (A,,8 | E,8) E,4 (G,4 | F,4 B,4) F,8 | z4 B,,6 C,2 D,4 | E,8 G,8 | A,4 F,4 E,8 | %11
w: in ver-|* bum tu-|* * um|spe- * *||* * ra-|
 F,8 B,,6 C,2 | D,2 E,2 F,4 G,4 F,4 | D,4 G,4 D,8 | (E,4 G,4 F,8 | E,8) E,8- | E,8 z8 | %17
w: vi, spe- *|* * * ra- *|* * vi:|quan- * *|* do|_|
 E,4 E,4 B,,8 | z4 B,,4 B,,4 B,,4 | E,4 G,4 F,8 | (B,,6 C,2 D,2 E,2 F,4) | E,8 D,4 A,4- | %22
w: fa- ci- es|de per- se-|quen- ti- bus,|de _ _ _ _|per- se- quen-|
 (A,4 G,4 A,4) F,4 | G,4 (E,12 | D,8 A,,8) | z4 A,,4 D,4 E,4- | E,8 B,,8 | z4 B,6 A,2 G,2 F,2 | %28
w: * * * ti-|bus me|_ _|ju- * *|* di-|* * ci- *|
 E,8 z4 E,4 | (A,8 G,8) | G,8 z4 E,4- | E,4 E,4 E,8 | E,4 D,8 A,4 | B,4 E,4 F,8 | E,8 z8 | %35
w: um? I-|ni- *|qui per-|* se- cu-|ti, per- se-|cu- ti sunt|me,|
 G,8 D,8 | D,8 D,8 | z4 G,6 F,2 E,4 | D,2 F,2 E,4 F,4 D,4- | D,4 E,8 A,,4 | B,,8 E,4 B,4 | %41
w: ad- ju-|va me,|Do- * *||* * mi-|ne De- *|
 =C4 B,4 A,4 G,4 | F,4 B,4 F,8 | B,,8 E,8 | z8 A,6 G,2 | F,4 E,8 A,,4 | B,,8 E,8 |] %47
w: |* * us,|De- us|me- *||* us.|

